X: 1
T: Unknown Reel 1
T: Polka (swung)
C: Trad
R: Polka
M: 2/4
L: 1/8
K: Dmaj
Z: ABC transcription by Jack Kanutin
r: 32
c|: "D" dcAF | "G/D" G2FG | "Asus4" Adde | "A"faec | "D" dcAF | "G/D" (3GAG FG |1 "A/G" A=cGE | EDD^c :|2 "A/G" A=cGE | EDDe||
"D" f3 a | gfed | "Em" (3Bcd | ef g2 fe | "A/F#" cdef | "G/D" a2 ge | "Asus4" a2 | ge fdde |
"D" fAfa | "D/F#" gfed | "G" (3Bcd | ef g2 fg | "A/G" a2 g | ea2 ge | a2 ge | fddc ||
